X: 7643
T: Cold Blow And The Rainy Night
R: jig
M: 6/8
K: Gmajor
A|:D2G G2E|F2G A2d|d2A A2G|F2A D2A|
D2G G2E|F2G A2d|d2G B2A|G3 G3:|
"Add Drones (first 2 verses SILENCE)Verse"
D2G G2E|F2G A2d|d2A A2G|F2A D2A|
D2G G2E|F2G A2d|d2G B2A|G3 G3|
|:z6|z6|z3 edc|1 .B2G A3:|2 . B2G ~A3|(G6|G6)||
G2B B2G|A2B c2d|~f2 d ~d3|ded cAF|
G2B B2G|A2B c2d|fed cAD|(G3 G3)||
|:z6|z6|z3 edc|1 .B2G A3:|2 . B2G ~A3|(G6|G6)||
|:F2E D2D|F2E D3|d3 edc|1 . B2G A3:|2 . B2G ~A3|(G6|G5)A||
|:G2B B2G|A2B c2d|(3fga f g2e|d2c A2A|
G2B B2G|A2B c2d|a>gf edc|(B3 B3):|
|:A~D2 A~D2|A~D2 AD2|d3 edc|
[1. B2d A3:|2 . d2B ~c3|(B6|B6)||

